static/images/sophiebluel/icons/edit.svg

<svg width="19" height="19" viewBox="0 0 19 19" fill="none" xmlns="http://www.w3.org/2000/svg">
<path d="M8.90827 5.6194L7.0677 7.45996C6.3896 8.13807 5.70762 8.81617 5.03339 9.50203C4.87452 9.66477 4.7544 9.88177 4.7079 10.0949C4.46378 11.2147 4.22741 12.3346 3.99104 13.4544L3.8593 14.0744C3.7973 14.3766 3.87867 14.6789 4.08404 14.8842C4.24291 15.0431 4.46378 15.1322 4.69627 15.1322C4.76214 15.1322 4.82802 15.1245 4.89389 15.1129L5.57587 14.9695C6.66084 14.7409 7.74968 14.5084 8.83465 14.2836C9.08652 14.2294 9.29963 14.117 9.48175 13.9349C12.5274 10.8854 15.5731 7.8397 18.6187 4.79792C18.8435 4.57318 18.9675 4.30581 18.9985 3.97645C19.0023 3.9222 18.9985 3.86795 18.9868 3.81758C18.9675 3.74008 18.952 3.65871 18.9326 3.58121C18.89 3.38359 18.8435 3.15885 18.7505 2.94185C18.1809 1.63989 17.2354 0.709921 15.9412 0.186812C15.6816 0.0821901 15.4065 0.0473162 15.1662 0.0163172L15.1003 0.00856739C14.7516 -0.0340563 14.4339 0.0821901 14.1587 0.361182C12.415 2.11263 10.6597 3.86795 8.90827 5.6194ZM14.9725 0.942414C14.9802 0.942414 14.9841 0.942414 14.9918 0.942414L15.0577 0.950164C15.2592 0.973413 15.4452 0.996662 15.5924 1.05866C16.6464 1.4849 17.4214 2.24437 17.8903 3.31384C17.9445 3.43784 17.9794 3.59671 18.0142 3.76333C18.0259 3.82533 18.0414 3.88732 18.053 3.94932C18.0375 4.01907 18.0104 4.06557 17.9561 4.11594C14.9066 7.15772 11.8609 10.2073 8.81527 13.2529C8.7649 13.3033 8.7184 13.3265 8.64865 13.342C7.55981 13.5707 6.47484 13.7993 5.386 14.0279L4.81252 14.148L4.92102 13.6404C5.15738 12.5244 5.39375 11.4046 5.63399 10.2886C5.64174 10.2538 5.67274 10.1995 5.70762 10.1608C6.38185 9.47878 7.05608 8.80067 7.73418 8.12644L9.57475 6.28588C11.3301 4.53055 13.0854 2.77523 14.8368 1.01604C14.9105 0.954039 14.9453 0.942414 14.9725 0.942414Z" fill="white"/>
<path d="M1.50733 4.22446H8.27287C8.53637 4.22446 8.74949 4.01134 8.74949 3.74785C8.74949 3.48436 8.53637 3.27124 8.27287 3.27124H1.50733C0.67423 3.27124 0 3.94934 0 4.77857V17.4649C0 18.298 0.678105 18.9723 1.50733 18.9723H14.1898C15.0229 18.9723 15.6972 18.2942 15.6972 17.4649V10.9745C15.6972 10.711 15.484 10.4979 15.2205 10.4979C14.957 10.4979 14.7439 10.711 14.7439 10.9745V17.4649C14.7439 17.7711 14.4921 18.0229 14.1859 18.0229H1.50733C1.20121 18.0229 0.949346 17.7711 0.949346 17.4649V4.78244C0.949346 4.47633 1.20121 4.22446 1.50733 4.22446Z" fill="white"/>
</svg>

<svg width="19" height="19" fill="none" xmlns="http://www.w3.org/2000/svg"><path d="m8.908 5.62-1.84 1.84c-.678.678-1.36 1.356-2.035 2.042-.158.163-.279.38-.325.593-.244 1.12-.48 2.24-.717 3.36l-.132.62a.883.883 0 0 0 .225.81c.159.158.38.247.612.247.066 0 .132-.008.198-.02l.682-.143c1.085-.228 2.174-.46 3.259-.685.252-.055.465-.167.647-.35 3.045-3.049 6.091-6.094 9.137-9.136.224-.225.349-.492.38-.822a.54.54 0 0 0-.012-.158c-.02-.078-.035-.16-.054-.237-.043-.197-.09-.422-.183-.64C18.18 1.64 17.235.71 15.941.188c-.26-.105-.535-.14-.775-.17L15.1.008c-.348-.043-.666.073-.941.352-1.744 1.752-3.5 3.507-5.25 5.258ZM14.973.941h.019l.066.008c.201.023.387.047.534.109 1.054.426 1.83 1.185 2.298 2.255.055.124.09.283.124.45.012.061.027.123.039.185a.294.294 0 0 1-.097.167c-3.05 3.042-6.095 6.091-9.14 9.137a.306.306 0 0 1-.167.089l-3.263.686-.573.12.108-.508c.236-1.116.473-2.235.713-3.351a.338.338 0 0 1 .074-.128 333.58 333.58 0 0 1 2.026-2.035l1.84-1.84c1.756-1.755 3.511-3.51 5.263-5.27.074-.062.108-.074.136-.074Z" fill="#fff"/><path d="M1.507 4.224h6.766a.476.476 0 1 0 0-.953H1.507C.674 3.271 0 3.95 0 4.78v12.686a1.51 1.51 0 0 0 1.507 1.507H14.19a1.51 1.51 0 0 0 1.507-1.507v-6.49a.476.476 0 1 0-.953 0v6.49a.56.56 0 0 1-.558.558H1.507a.56.56 0 0 1-.558-.558V4.782a.56.56 0 0 1 .558-.558Z" fill="#fff"/></svg>
